X:199
T:Willow Tree
R:
M:4/4
K:D
A | A6 F2 | D2 F2 A2 ^G2 | G6 E2 | C6 A2 |
c6 B2 | A2 c2 B2 G2 | F8 | -F6  A2 | d6 d2 |
e2 d2 A2 ^A2 | B8 | B6 A2 | c6 B2 |
A2 E2 G2 F2 | D8 | D6 ||
